!!!!SEGMENT: pl-sa--143-a-iii-43--003_anonim--missa-gregoriano-canto-patrem.krn
!!!cenid: 18xx:1288
!!!COM: Anonim
!!!COM-rismID: pe30004985
!!!CDT:
!!!CNT:
!!!OPR: Missa Gregoriano Canto
!!!OTL: Patrem
!!!OMV: 003
!!!PDT: 1815
!!!AGN: Sacred; Mass
!!!SMS-siglum: PL-SA
!!!SMS-shelfmark: 143/A III 43
!!!SMS-shelfwork: 001-003 M
!!!SMS-variant:
!!!SMS-altvar:
!!!NIFC-rismSourceID: 1001035509
!!!NIFC-rismChildID: 1001035509
!!!NIFC-islandoraID:
!!!URL-pdf-islandora:
!!!URL-scan: https://bc.bdsandomierz.pl/dlibra/publication/1500/edition/1468/content @EN{Scan in the Sandomierz Diocese Digital Library} @PL{Skany w portalu Cyfrowa Biblioteka Diecezjalna w Sandomierzu}
!!!ONB-nifc: UWAGA: części Mszy: 1. Kyrie, 2. Et in terra, 3. Patrem,. 4. Et incarnatus, 5. Et resurrexit, 6. Sanctus, 7. Benedictus, 8. Agnus Dei
!!!AIN: 1 organ 2 soprn
!!!key: F
**kern	**kern	**kern	**text	**kern	**text
*part3	*part3	*part2	*part2	*part1	*part1
*group2	*group2	*group1	*group1	*group1	*group1
*staff4	*staff3	*staff2	*staff2	*staff1	*staff1
*I"Organo.	*I"Organo.	*I"Canto 2do.	*	*I"[Canto Primo.]	*
*I'org	*	*I'S 2	*	*I'S 1	*
*Iorgan	*Iorgan	*Isoprn	*	*Isoprn	*
*ICklav	*ICklav	*ICvox	*	*ICvox	*
*clefF4	*clefC1	*clefC1	*	*clefC1	*
*k[b-]	*k[b-]	*k[b-]	*	*k[b-]	*
*F:	*F:	*F:	*	*F:	*
*M2/2	*M2/2	*M2/2	*	*M2/2	*
*met(c|)	*met(c|)	*met(c|)	*	*met(c|)	*
=1	=1	=1	=1	=1	=1
*2\right	*2\right	*2\right	*	*2\right	*
!!LO:TX:t=P:problem:metrum zapisane odwrotnie
4F\	2cc\	2a\	Pa-	2cc\	Pa-
4F\	.	.	.	.	.
4F\	2a\	2f/	-trem	2a\	-trem
4F\	.	.	.	.	.
=2	=2	=2	=2	=2	=2
4F\	4r	4r	.	4r	.
4F\	4a\	4f/	om-	4a\	om-
4F\	4b-\	4g/	-ni-	4b-\	-ni-
4F\	4cc\	4a/	-po-	4cc\	-po-
=3	=3	=3	=3	=3	=3
*	*^	*	*	*	*
2F\	2dd/	2b-\	2b-\	-ten-	2dd\	-ten-
2F\	2cc/	2a\	2a\	-tem	2cc\	-tem
=4	=4	=4	=4	=4	=4	=4
4r	2b-/	2g\	2g\	fac-	2b-\	fac-
4G\	.	.	.	.	.	.
4E\	4b-/	4g\	4g\	-to-	4b-\	-to-
4C\	4b-/	4g\	4g\	-rem	4b-\	-rem
=5	=5	=5	=5	=5	=5	=5
2C/	4b-/	4g\	4g\	Cae-	4b-\	Cae-
.	4a/	4f\	4f\	.	4a\	.
2r	4a/	4f\	4f\	-li	4a\	-li
.	4cc/	4a\	4a\	et	4cc\	et
=6	=6	=6	=6	=6	=6	=6
4r	2b-/	2g\	2g/	ter-	2b-\	ter-
4F\	.	.	.	.	.	.
4A\	2a/	2f\	2f/	-rae	2a\	-rae
4c\	.	.	.	.	.	.
*	*v	*v	*	*	*	*
=7	=7	=7	=7	=7	=7
4E\	4g/	4e/	Vi-	4g/	vi-
4C\	4g/	4e/	-si-	4g/	-si-
4E\	4g/	4e/	-bi-	4g/	-bi-
4C\	4a/	4f/	-li-	4a/	-li-
=8	=8	=8	=8	=8	=8
4E\	1b- 1g	1g	-um	1b-	-um
4C\	.	.	.	.	.
4E\	.	.	.	.	.
4C\	.	.	.	.	.
=9	=9	=9	=9	=9	=9
4F\	4a/	4f/	o-	4a\	o-
4C\	4a/	4f/	.	4a\	.
4F\	4a/	4f/	-mni-	4a\	-mni-
!	!	!LO:TX:t=P:problem=4f poprawione na 4g	!	!	!
!	!	!LO:TX:a:t=g.	!	!	!
4C\	4b-/	4g/	.	4b-\	.
!	!	!	!	!LO:LB:g=original	!
=10	=10	=10	=10	=10	=10
4F\	1cc 1a	1a	-um	1cc	-um
4C\	.	.	.	.	.
4F\	.	.	.	.	.
4C\	.	.	.	.	.
!LO:LB:g=original	!LO:LB:g=original	!LO:LB:g=original	!	!	!
=11	=11	=11	=11	=11	=11
*	*^	*	*	*	*
2F\	4cc/	4a\	4a\	et	4cc\	et
.	4dd/	4b-\	4b-\	in	4dd\	in
2r	4cc/	4a\	4a\	u-	4cc\	u-
.	4b-/	4g\	4g\	-num	4b-\	-num
=12	=12	=12	=12	=12	=12	=12
4r	4a/	4f\	4f/	Do-	4a\	Do-
4F\	4b-/	4g\	4g/	-mi-	4b-\	-mi-
4A\	2cc/	2a\	2a/	-num	2cc\	-num
4F\	.	.	.	.	.	.
=13	=13	=13	=13	=13	=13	=13
4B-\	2dd/	2b-\	2b-\	Je-	2dd\	Je-
4G\	.	.	.	.	.	.
4A\	2cc/	2a\	2a\	-sum	2cc\	-sum
4F\	.	.	.	.	.	.
=14	=14	=14	=14	=14	=14	=14
!	!LO:TX:t=P:problem=wykreślone dwa takty	!	!	!	!	!
4G\	2b-/	2g\	2g/	chri-	2b-\	chri-
4C\	.	.	.	.	.	.
4F\	2a/	2f\	2f/	.	2a\	.
4FF/	.	.	.	.	.	.
*	*v	*v	*	*	*	*
=15	=15	=15	=15	=15	=15
4C\	1g 1e	1e	-ſtum	1g	-ſtum
4E\	.	.	.	.	.
4G\	.	.	.	.	.
4c\	.	.	.	.	.
=16	=16	=16	=16	=16	=16
*	*^	*	*	*	*
4r	2b-/	2g\	2g/	Fi-	2b-\	Fi-
4G\	.	.	.	.	.	.
4E\	4b-/	4g\	4g/	-li-	4b-\	-li-
4C\	4b-/	4g\	4g/	-um	4b-\	-um
=17	=17	=17	=17	=17	=17	=17
4r	4b-/	4g\	4g/	De-	4b-\	De-
4F\	4a/	4f\	4f/	.	4a\	.
4C/	2a/	2f\	2f/	-j	2a\	-i
4AA/	.	.	.	.	.	.
=18	=18	=18	=18	=18	=18	=18
4B-\	4dd/	4b-\	4b-\	u-	4dd\	u-
4G\	4cc/	4a\	4a\	-ni	4cc\	-ni
4A\	4b-/	4g\	4g\	ge-	4b-\	ge-
4F\	4a/	4f\	4f\	-ni-	4a\	-ni-
*	*v	*v	*	*	*	*
!LO:LB:g=original	!LO:LB:g=original	!	!	!	!
=19	=19	=19	=19	=19	=19
!LO:SIC:v:s=1E	!	!	!	!	!
1D	1g 1e	1e	-tum	1g	-tum
=20||	=20||	=20||	=20||	=20||	=20||
*	*^	*	*	*	*
2F\	2cc/	2a\	2a\	De-	2cc\	De-
2r	4a/	4f\	4f/	-um	4a\	-um
.	4cc/	4a\	4a/	De	4cc\	De
=21	=21	=21	=21	=21	=21	=21
4r	4cc/	4a\	4a/	De-	4cc\	De-
4C/	4b-/	4g\	4g/	.	4b-\	.
4E/	2b-/	2g\	2g/	-o	2b-\	-o
4G/	.	.	.	.	.	.
=22	=22	=22	=22	=22	=22	=22
2C/	2b-/	2g\	2g/	lu-	2b-\	lu-
2r	4g/	4e\	4e/	men	4g\	men
.	4b-/	4g\	4g/	de	4b-\	de
=23	=23	=23	=23	=23	=23	=23
4r	4b-/	4g\	4g/	lu-	4b-\	lu-
4F\	4a/	4f\	4f/	-mi-	4a\	-mi-
4A\	2a/	2f\	2f/	-ne	2a\	-ne
4F\	.	.	.	.	.	.
!	!	!	!LO:LB:g=original	!	!LO:LB:g=original	!
=24	=24	=24	=24	=24	=24	=24
4F\	4a/	4f\	4f/	ge-	4a\	ge-
4C\	4a/	4f\	4f/	-ni-	4a\	-ni-
4G\	4b-/	4g\	4g/	-tum	4b-\	-tum
4C\	4b-/	4g\	4g/	non	4b-\	non
=25	=25	=25	=25	=25	=25	=25
4A\	2.cc/	2.a\	2.a\	fac-	2.cc\	fac-
4C\	.	.	.	.	.	.
4G\	.	.	.	.	.	.
4C\	4b-/	4g\	4g\	-tum	4b-\	-tum
=26	=26	=26	=26	=26	=26	=26
4F\	4a/	4f\	4f/	Con-	4a\	con-
4C\	4a/	4f\	4f/	-sub-	4a\	-sub-
4G\	4b-/	4g\	4g/	-stan-	4b-\	-stan-
4C/	4b-/	4g\	4g/	-ti-	4b-\	-ti-
=27	=27	=27	=27	=27	=27	=27
4A\	2.cc/	2.a\	2.a\	-a-	2.cc\	-a-
4C\	.	.	.	.	.	.
4G\	.	.	.	.	.	.
4C\	4b-/	4g\	4g\	-lem	4b-\	-lem
=28	=28	=28	=28	=28	=28	=28
4F\	2cc/	2a\	2a\	pa-	2cc\	pa-
4F\	.	.	.	.	.	.
4F\	2a/	2f\	2f/	-tri	2a\	-tri
4F\	.	.	.	.	.	.
!LO:TX:b:t=verte Citiſsimo	!	!	!	!	!	!
!LO:PB:g=original	!LO:PB:g=original	!	!	!	!	!
=29	=29	=29	=29	=29	=29	=29
4E\	2dd/	2b-\	2b-\	per	2dd\	per
4E\	.	.	.	.	.	.
4F\	2cc/	2a\	2a\	qvem	2cc\	qvem
4F\	.	.	.	.	.	.
=30	=30	=30	=30	=30	=30	=30
4G\	2b-/	2g\	2g/	om-	2b-\	om-
4G\	.	.	.	.	.	.
4F\	2a/	2f\	2f/	-ni-	2a\	-ni-
4F\	.	.	.	.	.	.
*	*v	*v	*	*	*	*
=31	=31	=31	=31	=31	=31
4C\	1g 1c	1e	-a	1g	-a
4c\	.	.	.	.	.
4G\	.	.	.	.	.
4E\	.	.	.	.	.
=32	=32	=32	=32	=32	=32
*	*^	*	*	*	*
2C/	2b-/	2g\	2g\	om-	2b-\	om-
2r	4b-/	4g\	4g\	-ni-	4b-\	-ni-
.	4b-/	4g\	4g\	-a	4b-\	-a
=33	=33	=33	=33	=33	=33	=33
4r	4b-/	4g\	4g\	fac-	4b-\	fac-
4F\	4a/	4f\	4f\	-ta	4a\	-ta
4A\	2a/	2f\	2f/	ſunt	2a\	ſunt
4F\	.	.	.	.	.	.
=34	=34	=34	=34	=34	=34	=34
4F\	2a/	2f\	2f/	qvi	2a\	qvi
4F\	.	.	.	.	.	.
4F\	2a/	2f\	2f/	prop-	2a\	prop-
4F\	.	.	.	.	.	.
=35	=35	=35	=35	=35	=35	=35
4E\	2b-/	2g\	2g/	-ter	2b-\	-ter
4E\	.	.	.	.	.	.
4E\	2b-/	2g\	2g/	nos	2b-\	nos
4E\	.	.	.	.	.	.
*	*v	*v	*	*	*	*
=36	=36	=36	=36	=36	=36
4r	2g 2c/	2e/	ho-	2g\	ho-
4C/	.	.	.	.	.
4D/	2g 2c/	2e/	-mi-	2g\	-mi-
4E/	.	.	.	.	.
=37	=37	=37	=37	=37	=37
2F\	1a 1f	1f	-nes	1a	-nes
2FF/	.	.	.	.	.
!	!	!LO:LB:g=original	!	!	!
=38	=38	=38	=38	=38	=38
*	*^	*	*	*	*
4r	2cc/	2a\	2a\	et	2cc\	et
4F\	.	.	.	.	.	.
4A\	4dd/	4b-\	4b-\	prop-	4dd\	prop-
4c\	4cc/	4a\	4a\	-ter	4cc\	-ter
!LO:LB:g=original	!LO:LB:g=original	!	!	!	!LO:LB:g=original	!
=39	=39	=39	=39	=39	=39	=39
4r	2b-/	2g\	2g/	nos-	2b-\	nos-
4C/	.	.	.	.	.	.
4E/	2b-/	2g\	2g/	-tram	2b-\	-tram
4G/	.	.	.	.	.	.
=40	=40	=40	=40	=40	=40	=40
4F\	2a/	2f\	2f/	ſa-	2a\	ſa-
4G\	.	.	.	.	.	.
4A\	2a/	2f\	2f/	-lu-	2a\	-lu-
4F\	.	.	.	.	.	.
*	*v	*v	*	*	*	*
=41	=41	=41	=41	=41	=41
1C	1g 1c	1e	-tem	1g	-tem
=42	=42	=42	=42	=42	=42
4r	2f/	1f/	de-	2f/	de-
!LO:TX:a:t=f	!	!	!	!	!
4F\	.	.	.	.	.
4E\	2a/	.	.	2a/	.
4C\	.	.	.	.	.
=43	=43	=43	=43	=43	=43
4r	2g\	2e/	-ſcen-	2g\	-ſcen-
4G\	.	.	.	.	.
4E\	2b-\	2g/	-dit	2b-\	-dit
4C\	.	.	.	.	.
=44	=44	=44	=44	=44	=44
4r	2a\	2f/	de-	2a\	de-
4A\	.	.	.	.	.
4F\	2cc\	2a\	.	2cc\	.
4C\	.	.	.	.	.
=45	=45	=45	=45	=45	=45
4r	2b-\	2g\	-ſcen-	2b-\	-ſcen-
4B-\	.	.	.	.	.
4G\	2dd\	2b-\	-dit	2dd\	-dit
4E\	.	.	.	.	.
=46	=46	=46	=46	=46	=46
4F\	2cc\	2a\	de	2cc\	de
4A\	.	.	.	.	.
4c\	2a\	2f\	.	2a\	.
4A\	.	.	.	.	.
=47	=47	=47	=47	=47	=47
4C/	2b-\	2g\	Cae-	2b-\	Cae-
4E/	.	.	.	.	.
4G/	2g\	2e/	.	2g\	.
4E/	.	.	.	.	.
=48	=48	=48	=48	=48	=48
1F;	1a 1f 1c;	1f	-lis	1a	-lis
==	==	==	==	==	==
*-	*-	*-	*-	*-	*-
!!!system-decoration: [(g1)]{(g2)}
!!!ENC: Katarzyna Serwa
!!!END: 2022-03-28
!!!ENC: Tomasz Grochalski
!!!END: 2020-12-07
!!!YEC: Copyright 2022 Narodowy Instytut Fryderyka Chopina (https://polishscores.org)
!!!YEM: License CC-BY-4.0 (https://creativecommons.org/licenses/by/4.0)
